X: 31
T: If I were Irish
C: Armand Aromin
H: 3/24/05
M: 6/8
L: 1/8
R: Jig
K: Dmaj
dcd AFD | dcd AFD | GFG AGA | dAF DFA |
dcd AFD | dcd AFD | GFG AGA | dBc d2 A :|
dDD dDD | cDD cDD | BDD BDD | ADD ABc |
dDD dDD | cDD cDD | dAF DFA | dBc d2 A :|
